!! 00010] TT[TB
!! Eigene Aufnahme
!!!OTL: Huiqin Future
!!!ARE: Neimeng
!! Ethnic Group: Menggu
!! MM, S. 817
!!!SCT: C0567
!!!YEM: Copyright 1995, estate of Helmut Schaffrath.
**kern
*ICvox
*Ivox
*M2/4
*k[]
*C:
{8g
8e
4g
=1
8g
8cc
8cc
8a
=2
8cc
8c
8c
8cc
=3
2g}
=4
{8g
8A
4c
=5
8e
8a
8g
8d
=6
8.e
16A
8G
8d
=7
2c}
==
!!!AGN: NN
!! Saenger: Chao Lun Batou, der das Buch nur zum Nachschlagen
!!    benutzte und ansonsten auswendig sang. Da er aus dem Osten der
!!    Neimeng kommt, kennt er nicht so viele Lieder des Westens.
!!    Alle Lieder wurden mit erkaelteter, halber Stimme in meinem
!!    Zimmer gesungen. FOTO VORHANDEN (DIAS)  31.3.87
!!    VARIANTE. 2 Strophen
!!!ONB: ESAC (Essen Associative Code) Database: CHINA
!!!AMT: simple duple
!!!AIN: vox
!!!EED: Helmut Schaffrath
!!!EEV: 1.0
*-
